X: 2077
T: At Liberty
R: reel
M: 4/4
K: Dmixolydian
Addc A2 (~c2|c) GAd cAGE|D2 (3EFG ABcA|de ~f3gab|
agge d2 (~g2|g) ede (3cde ag|~f3e dged|cAGE D3 c:|
Adde f2 (~g2|g) aba gede|~c3e a2 ~(c2|c) eag fdcA|
dcAG ~E3G|~c3d eaag|~f3e dged|cAGE D3 c:|

